archdroid-icon-theme/Archdroid-Blue/actions/scalable/format-indent-less.svg

<svg fill="#2196F3" viewBox="0 0 48 48" xmlns="http://www.w3.org/2000/svg"><path d="m22 34h20v-4h-20zm-16-10 8 8v-16zm0 18h36v-4h-36zm0-36v4h36v-4zm16 12h20v-4h-20zm0 8h20v-4h-20z" fill="#2196F3"/></svg>

<svg fill="#2196F3" viewBox="0 0 48 48" xmlns="http://www.w3.org/2000/svg"><path d="M22 34h20v-4H22v4zM6 24l8 8V16l-8 8zm0 18h36v-4H6v4zM6 6v4h36V6H6zm16 12h20v-4H22v4zm0 8h20v-4H22v4z"/></svg>
